packages/gestalt/src/icons/ad-group.svg

<svg width="24px" height="24px" xmlns="http://www.w3.org/2000/svg"><path d="M9,11 C8.44771525,11 8,10.5522847 8,10 L8,1 C8,0.44771525 8.44771525,-3.38176876e-17 9,0 L15,0 C15.5522847,3.38176876e-17 16,0.44771525 16,1 L16,10 C16,10.5522847 15.5522847,11 15,11 L9,11 Z M10,9 L14,9 L14,7 L10,7 L10,9 Z M20,13 C20.5522847,13 21,13.4477153 21,14 L21,23 C21,23.5522847 20.5522847,24 20,24 L14,24 C13.4477153,24 13,23.5522847 13,23 L13,14 C13,13.4477153 13.4477153,13 14,13 L20,13 Z M15,22 L19,22 L19,20 L15,20 L15,22 Z M10,13 C10.5522847,13 11,13.4477153 11,14 L11,23 C11,23.5522847 10.5522847,24 10,24 L4,24 C3.44771525,24 3,23.5522847 3,23 L3,14 C3,13.4477153 3.44771525,13 4,13 L10,13 Z M5,22 L9,22 L9,20 L5,20 L5,22 Z" fill="#8E8E8E"/></svg>

<svg width="24" height="24" xmlns="http://www.w3.org/2000/svg"><path d="M9 11a1 1 0 0 1-1-1V1a1 1 0 0 1 1-1h6a1 1 0 0 1 1 1v9a1 1 0 0 1-1 1H9zm1-2h4V7h-4v2zm10 4a1 1 0 0 1 1 1v9a1 1 0 0 1-1 1h-6a1 1 0 0 1-1-1v-9a1 1 0 0 1 1-1h6zm-5 9h4v-2h-4v2zm-5-9a1 1 0 0 1 1 1v9a1 1 0 0 1-1 1H4a1 1 0 0 1-1-1v-9a1 1 0 0 1 1-1h6zm-5 9h4v-2H5v2z" fill="#8E8E8E"/></svg>
